X:25
M:6/8
L:1/8
Q:110
K:Dm
d>ed d>ed|c>de e>dc|d>ef e2d|c3 A3|d>ed d>ed|c>de e>dc|d>ef e2d|c3 A3|

